icons/fill-new-food-noodle.svg

<svg xmlns="http://www.w3.org/2000/svg" width="32px" height="32px" viewBox="0 0 32 32" version="1.1">
    <title>fill-new-food-noodle</title>
    <g id="fill-new-food-noodle" stroke-width="1" fill-rule="evenodd">
        <path d="M23,26 L23,27 C23,28.1045695 22.1045695,29 21,29 L11,29 C9.8954305,29 9,28.1045695 9,27 L9,26 L23,26 Z M29,14 C29,18.0214684 27.1739959,21.6164506 24.3058806,24.0010539 L7.69411937,24.0010539 C4.82600409,21.6164506 3,18.0214684 3,14 L29,14 Z M13,3 C15.3044208,3 17.4065584,3.86607772 18.9986685,5.29048898 C19.6422845,5.09880052 20.3147418,5 21,5 C24.8659932,5 28,8.13400675 28,12 L26,12 C26,9.23857625 23.7614237,7 21,7 C20.832106,7 20.6654693,7.0082445 20.5005036,7.02456476 C21.4481231,8.44985805 22,10.1604801 22,12 L20,12 C20,8.13400675 16.8659932,5 13,5 C9.13400675,5 6,8.13400675 6,12 L4,12 C4,7.02943725 8.02943725,3 13,3 Z M13,7 C15.7614237,7 18,9.23857625 18,12 L16,12 C16,10.3431458 14.6568542,9 13,9 C11.3431458,9 10,10.3431458 10,12 L8,12 C8,9.23857625 10.2385763,7 13,7 Z" id="&#24418;&#29366;" />
    </g>
</svg>

<svg xmlns="http://www.w3.org/2000/svg" viewBox="0 0 32 32"><path fill="currentColor" d="M23 26v1a2 2 0 0 1-2 2H11a2 2 0 0 1-2-2v-1zm6-12c0 4.021-1.826 7.616-4.694 10.001H7.694A12.973 12.973 0 0 1 3 14zM13 3c2.304 0 4.407.866 5.999 2.29A7 7 0 0 1 28 12h-2a5 5 0 0 0-5.5-4.975A8.956 8.956 0 0 1 22 12h-2a7 7 0 0 0-14 0H4a9 9 0 0 1 9-9m0 4a5 5 0 0 1 5 5h-2a3 3 0 0 0-6 0H8a5 5 0 0 1 5-5"/></svg>
